build/assets/img/svg/logo.svg

<svg width="162" height="62" viewBox="0 0 162 62" fill="none" xmlns="http://www.w3.org/2000/svg">
<path d="M71.8216 37.0664C76.3935 37.0664 79.006 34.5472 80.4989 31.9658L76.7045 30.1308C75.8337 31.8414 73.9676 33.1476 71.8216 33.1476C68.0584 33.1476 65.3214 30.2552 65.3214 26.3364C65.3214 22.4176 68.0584 19.5252 71.8216 19.5252C73.9676 19.5252 75.8337 20.8626 76.7045 22.5421L80.4989 20.676C79.0371 18.0946 76.3935 15.6064 71.8216 15.6064C65.6014 15.6064 60.7806 19.9606 60.7806 26.3364C60.7806 32.7122 65.6014 37.0664 71.8216 37.0664Z" fill="url(#paint0_linear)"/>
<path d="M105.614 36.6932V15.9486H99.3937L94.3553 28.4824L89.3169 15.9486H83.1277V36.6932H87.5441V22.1688L93.3912 36.6932H95.3194L101.166 22.1688V36.6932H105.614Z" fill="url(#paint1_linear)"/>
<path d="M114.877 31.8724V26.5541C115.53 25.5589 116.992 24.8124 118.267 24.8124C120.568 24.8124 122.092 26.5852 122.092 29.1977C122.092 31.8102 120.568 33.5519 118.267 33.5519C116.992 33.5519 115.53 32.8366 114.877 31.8724ZM114.877 36.6932V34.7649C116.058 36.2577 117.707 37.0664 119.511 37.0664C123.305 37.0664 126.166 34.205 126.166 29.1977C126.166 24.2837 123.336 21.298 119.511 21.298C117.738 21.298 116.058 22.0755 114.877 23.5995V15.9485H110.927V36.6932H114.877Z" fill="#0A3D76"/>
<path d="M136.117 37.0664C141.093 37.0664 144.079 33.4586 144.079 29.1666C144.079 24.9057 141.093 21.298 136.117 21.298C131.172 21.298 128.186 24.9057 128.186 29.1666C128.186 33.4586 131.172 37.0664 136.117 37.0664ZM136.117 33.5519C133.66 33.5519 132.291 31.5303 132.291 29.1666C132.291 26.834 133.66 24.8124 136.117 24.8124C138.574 24.8124 139.973 26.834 139.973 29.1666C139.973 31.5303 138.574 33.5519 136.117 33.5519Z" fill="#0A3D76"/>
<path d="M159.662 36.6932L154.281 28.98L159.32 21.6712H154.903L151.824 26.3053L148.714 21.6712H144.298L149.305 28.98L143.987 36.6932H148.372L151.824 31.6236L155.245 36.6932H159.662Z" fill="#0A3D76"/>
<path fill-rule="evenodd" clip-rule="evenodd" d="M28.3165 10.9374C28.7075 10.722 29.183 10.7215 29.5745 10.9361L41.5809 17.9029C42.207 18.2461 42.4335 19.0268 42.0868 19.6466C41.7401 20.2664 40.9515 20.4906 40.3253 20.1474L28.9483 13.5256L17.5889 19.7838C16.9635 20.1284 16.1744 19.9058 15.8264 19.2868C15.4784 18.6677 15.7032 17.8865 16.3285 17.542L28.3165 10.9374ZM28.9499 39.8296C29.6656 39.8321 30.2438 40.4084 30.2414 41.1168L30.2239 46.1835L40.3023 40.6329C40.9277 40.2884 41.7168 40.5111 42.0647 41.1302C42.4127 41.7493 42.1877 42.5305 41.5623 42.8749L30.2239 49.1997C29.2684 49.6522 28.6205 49.6522 27.6496 49.1997L16.3113 42.5248C15.6907 42.172 15.4764 41.3879 15.8328 40.7735C16.1892 40.1591 16.9813 39.9471 17.6019 40.2999L27.6322 46.1578L27.6496 41.1081C27.6521 40.3996 28.2343 39.8272 28.9499 39.8296Z" fill="url(#paint2_linear)"/>
<path fill-rule="evenodd" clip-rule="evenodd" d="M44.8206 20.4944C45.2109 20.7352 45.4503 21.1727 45.4503 21.6454V39.0354C45.4503 39.7742 44.8754 40.3731 44.1663 40.3731C43.4572 40.3731 42.8823 39.7742 42.8823 39.0354V23.9042L30.3684 31.3405V36.0346C30.3684 36.7734 29.7935 37.3723 29.0844 37.3723C28.3753 37.3723 27.8004 36.7734 27.8004 36.0346V31.3456L14.3434 23.7631V39.2433C14.3434 39.9821 13.7685 40.581 13.0594 40.581C12.3503 40.581 11.7754 39.9821 11.7754 39.2433V21.5188C11.7754 21.0476 12.0134 20.6111 12.402 20.3698C12.7906 20.1285 13.2723 20.118 13.6702 20.3422L29.0803 29.0251L43.5491 20.4724C43.9469 20.2452 44.4303 20.2535 44.8206 20.4944Z" fill="url(#paint3_linear)"/>
<path fill-rule="evenodd" clip-rule="evenodd" d="M26.1592 4.17177C27.8465 3.14378 29.0807 2.48539 30.7614 3.52367L49.3562 14.4118C50.577 15.166 51.0967 16.4258 50.3337 17.6325C49.5707 18.8392 47.9702 18.3867 46.7494 17.6325L29.2699 7.28441L8.53562 18.8418V42.2734L29.2699 54.0835L46.7695 43.9029C48.0195 43.1969 50.0475 42.6674 50.7618 43.9029C51.4761 45.1384 50.7439 46.4 49.4939 47.106L32.5096 57.1762C30.9538 58.0549 28.6219 58.4721 26.4849 57.1822L6.60807 45.9098C4.90915 45.0142 4.00127 44.4653 4.00127 42.5622L4.00139 19.8224C3.9674 17.9666 4.55231 16.2512 6.15427 15.3946L26.1592 4.17177Z" fill="url(#paint4_linear)"/>
<path d="M65.1089 48.9138C66.8103 48.9138 67.7825 47.9955 68.3381 47.0544L66.926 46.3855C66.602 47.0091 65.9075 47.4853 65.1089 47.4853C63.7084 47.4853 62.6898 46.4308 62.6898 45.0023C62.6898 43.5737 63.7084 42.5193 65.1089 42.5193C65.9075 42.5193 66.602 43.0068 66.926 43.619L68.3381 42.9388C67.7941 41.9977 66.8103 41.0907 65.1089 41.0907C62.794 41.0907 61 42.678 61 45.0023C61 47.3265 62.794 48.9138 65.1089 48.9138Z" fill="#B01E34"/>
<path d="M70.7516 48.7778V45.161C70.9947 44.8095 71.6428 44.5374 72.129 44.5374C72.291 44.5374 72.4299 44.5488 72.5341 44.5714V43.1655C71.8396 43.1655 71.1451 43.5624 70.7516 44.0499V43.3016H69.2817V48.7778H70.7516Z" fill="#B01E34"/>
<path d="M76.0799 48.9138C76.9479 48.9138 77.8276 48.6531 78.3832 48.1542L77.735 47.2245C77.3762 47.5646 76.7165 47.7687 76.2419 47.7687C75.2928 47.7687 74.7257 47.1905 74.6331 46.4989H78.7883V46.1814C78.7883 44.39 77.654 43.1655 75.9873 43.1655C74.2859 43.1655 73.0937 44.4467 73.0937 46.034C73.0937 47.7914 74.3784 48.9138 76.0799 48.9138ZM77.3646 45.5238H74.6099C74.6794 44.9796 75.0729 44.3107 75.9873 44.3107C76.9595 44.3107 77.3299 45.0023 77.3646 45.5238Z" fill="#B01E34"/>
<path d="M84.6765 48.7778V45.2404C84.6765 43.6644 83.5075 43.1655 82.2343 43.1655C81.3547 43.1655 80.475 43.4376 79.7921 44.0272L80.3477 44.9909C80.8223 44.5601 81.3778 44.3447 81.9797 44.3447C82.7204 44.3447 83.2066 44.7075 83.2066 45.263V46C82.8362 45.5692 82.1765 45.3311 81.4357 45.3311C80.5445 45.3311 79.4912 45.8186 79.4912 47.0998C79.4912 48.3243 80.5445 48.9138 81.4357 48.9138C82.1649 48.9138 82.8246 48.6531 83.2066 48.2109V48.7778H84.6765ZM82.026 47.9388C81.4473 47.9388 80.9727 47.644 80.9727 47.1338C80.9727 46.6009 81.4473 46.3061 82.026 46.3061C82.5005 46.3061 82.9635 46.4649 83.2066 46.7823V47.4626C82.9635 47.78 82.5005 47.9388 82.026 47.9388Z" fill="#B01E34"/>
<path d="M88.0095 48.9138C88.623 48.9138 89.0165 48.7551 89.2364 48.5624L88.9239 47.4739C88.8429 47.5533 88.6346 47.6327 88.4146 47.6327C88.0906 47.6327 87.9054 47.3719 87.9054 47.0317V44.5601H89.0397V43.3016H87.9054V41.805H86.4239V43.3016H85.4979V44.5601H86.4239V47.4172C86.4239 48.3923 86.9794 48.9138 88.0095 48.9138Z" fill="#B01E34"/>
<path d="M90.7745 42.712C91.2607 42.712 91.6542 42.3265 91.6542 41.8503C91.6542 41.3741 91.2607 41 90.7745 41C90.3 41 89.8949 41.3741 89.8949 41.8503C89.8949 42.3265 90.3 42.712 90.7745 42.712ZM91.5153 48.7778V43.3016H90.0454V48.7778H91.5153Z" fill="#B01E34"/>
<path d="M96.0053 48.7778L98.2507 43.3016H96.665L95.2067 47.1111L93.7483 43.3016H92.1742L94.4196 48.7778H96.0053Z" fill="#B01E34"/>
<path d="M101.534 48.9138C102.402 48.9138 103.282 48.6531 103.838 48.1542L103.189 47.2245C102.831 47.5646 102.171 47.7687 101.696 47.7687C100.747 47.7687 100.18 47.1905 100.088 46.4989H104.243V46.1814C104.243 44.39 103.108 43.1655 101.442 43.1655C99.7403 43.1655 98.5481 44.4467 98.5481 46.034C98.5481 47.7914 99.8329 48.9138 101.534 48.9138ZM102.819 45.5238H100.064C100.134 44.9796 100.527 44.3107 101.442 44.3107C102.414 44.3107 102.784 45.0023 102.819 45.5238Z" fill="#B01E34"/>
<path d="M116.669 48.7778V41.2154H114.354L112.479 45.7846L110.604 41.2154H108.301V48.7778H109.944V43.483L112.12 48.7778H112.838L115.014 43.483V48.7778H116.669Z" fill="#B01E34"/>
<path d="M122.994 48.7778V45.2404C122.994 43.6644 121.825 43.1655 120.552 43.1655C119.672 43.1655 118.792 43.4376 118.109 44.0272L118.665 44.9909C119.14 44.5601 119.695 44.3447 120.297 44.3447C121.038 44.3447 121.524 44.7075 121.524 45.263V46C121.153 45.5692 120.494 45.3311 119.753 45.3311C118.862 45.3311 117.808 45.8186 117.808 47.0998C117.808 48.3243 118.862 48.9138 119.753 48.9138C120.482 48.9138 121.142 48.6531 121.524 48.2109V48.7778H122.994ZM120.343 47.9388C119.765 47.9388 119.29 47.644 119.29 47.1338C119.29 46.6009 119.765 46.3061 120.343 46.3061C120.818 46.3061 121.281 46.4649 121.524 46.7823V47.4626C121.281 47.78 120.818 47.9388 120.343 47.9388Z" fill="#B01E34"/>
<path d="M125.922 48.7778V45.161C126.165 44.8095 126.813 44.5374 127.299 44.5374C127.461 44.5374 127.6 44.5488 127.704 44.5714V43.1655C127.01 43.1655 126.315 43.5624 125.922 44.0499V43.3016H124.452V48.7778H125.922Z" fill="#B01E34"/>
<path d="M134.086 48.7778L131.806 45.7846L134.016 43.3016H132.211L130.093 45.7392V41.2154H128.623V48.7778H130.093V47.3719L130.764 46.6689L132.245 48.7778H134.086Z" fill="#B01E34"/>
<path d="M137.376 48.9138C138.244 48.9138 139.124 48.6531 139.68 48.1542L139.031 47.2245C138.673 47.5646 138.013 47.7687 137.538 47.7687C136.589 47.7687 136.022 47.1905 135.929 46.4989H140.085V46.1814C140.085 44.39 138.95 43.1655 137.284 43.1655C135.582 43.1655 134.39 44.4467 134.39 46.034C134.39 47.7914 135.675 48.9138 137.376 48.9138ZM138.661 45.5238H135.906C135.976 44.9796 136.369 44.3107 137.284 44.3107C138.256 44.3107 138.626 45.0023 138.661 45.5238Z" fill="#B01E34"/>
<path d="M143.021 48.9138C143.635 48.9138 144.028 48.7551 144.248 48.5624L143.936 47.4739C143.855 47.5533 143.646 47.6327 143.427 47.6327C143.102 47.6327 142.917 47.3719 142.917 47.0317V44.5601H144.052V43.3016H142.917V41.805H141.436V43.3016H140.51V44.5601H141.436V47.4172C141.436 48.3923 141.991 48.9138 143.021 48.9138Z" fill="#B01E34"/>
<path d="M145.786 42.712C146.273 42.712 146.666 42.3265 146.666 41.8503C146.666 41.3741 146.273 41 145.786 41C145.312 41 144.907 41.3741 144.907 41.8503C144.907 42.3265 145.312 42.712 145.786 42.712ZM146.527 48.7778V43.3016H145.057V48.7778H146.527Z" fill="#B01E34"/>
<path d="M153.228 48.7778V44.9116C153.228 43.8458 152.638 43.1655 151.411 43.1655C150.496 43.1655 149.813 43.5964 149.455 44.0159V43.3016H147.985V48.7778H149.455V45.093C149.698 44.7642 150.149 44.4467 150.728 44.4467C151.353 44.4467 151.758 44.7075 151.758 45.4671V48.7778H153.228Z" fill="#B01E34"/>
<path d="M156.979 51C158.356 51 160 50.4898 160 48.4036V43.3016H158.518V44.0045C158.067 43.449 157.465 43.1655 156.794 43.1655C155.382 43.1655 154.329 44.1633 154.329 45.9546C154.329 47.78 155.393 48.7438 156.794 48.7438C157.477 48.7438 158.079 48.4263 158.518 47.8821V48.4376C158.518 49.5147 157.685 49.8209 156.979 49.8209C156.273 49.8209 155.683 49.6281 155.231 49.1406L154.572 50.1837C155.278 50.7846 156.018 51 156.979 51ZM157.257 47.4626C156.424 47.4626 155.845 46.8957 155.845 45.9546C155.845 45.0136 156.424 44.4467 157.257 44.4467C157.743 44.4467 158.275 44.7075 158.518 45.0703V46.839C158.275 47.1905 157.743 47.4626 157.257 47.4626Z" fill="#B01E34"/>
<defs>
<linearGradient id="paint0_linear" x1="60.7806" y1="25.114" x2="105.603" y2="25.8561" gradientUnits="userSpaceOnUse">
<stop stop-color="#B6142C"/>
<stop offset="1" stop-color="#A62E41"/>
</linearGradient>
<linearGradient id="paint1_linear" x1="60.7806" y1="25.114" x2="105.603" y2="25.8561" gradientUnits="userSpaceOnUse">
<stop stop-color="#B6142C"/>
<stop offset="1" stop-color="#A62E41"/>
</linearGradient>
<linearGradient id="paint2_linear" x1="15.6631" y1="29.4946" x2="42.8768" y2="29.7022" gradientUnits="userSpaceOnUse">
<stop stop-color="#1758A0"/>
<stop offset="1" stop-color="#0A3D76"/>
</linearGradient>
<linearGradient id="paint3_linear" x1="11.7754" y1="29.219" x2="45.4456" y2="29.6595" gradientUnits="userSpaceOnUse">
<stop stop-color="#CD1732"/>
<stop offset="0.5" stop-color="#B6142C"/>
<stop offset="1" stop-color="#8B1022"/>
</linearGradient>
<linearGradient id="paint4_linear" x1="4" y1="27.3671" x2="51.0416" y2="27.6859" gradientUnits="userSpaceOnUse">
<stop stop-color="#B6142C"/>
<stop offset="1" stop-color="#A62E41"/>
</linearGradient>
</defs>
</svg>

<svg width="162" height="62" fill="none" xmlns="http://www.w3.org/2000/svg"><path d="M71.822 37.066c4.572 0 7.184-2.519 8.677-5.1l-3.794-1.835c-.871 1.71-2.737 3.017-4.883 3.017-3.764 0-6.5-2.893-6.5-6.812 0-3.918 2.736-6.81 6.5-6.81 2.146 0 4.012 1.337 4.882 3.016l3.795-1.866c-1.462-2.581-4.105-5.07-8.677-5.07-6.22 0-11.041 4.355-11.041 10.73 0 6.376 4.82 10.73 11.04 10.73z" fill="url(#paint0_linear)"/><path d="M105.614 36.693V15.95h-6.22l-5.039 12.533-5.038-12.533h-6.19v20.744h4.417V22.17l5.847 14.524h1.928l5.847-14.524v14.524h4.448z" fill="url(#paint1_linear)"/><path d="M114.877 31.872v-5.318c.653-.995 2.115-1.742 3.39-1.742 2.301 0 3.825 1.773 3.825 4.386 0 2.612-1.524 4.354-3.825 4.354-1.275 0-2.737-.715-3.39-1.68zm0 4.821v-1.928c1.181 1.493 2.83 2.301 4.634 2.301 3.794 0 6.655-2.861 6.655-7.868 0-4.914-2.83-7.9-6.655-7.9-1.773 0-3.453.778-4.634 2.302v-7.652h-3.95v20.745h3.95zm21.24.373c4.976 0 7.962-3.607 7.962-7.9 0-4.26-2.986-7.868-7.962-7.868-4.945 0-7.931 3.608-7.931 7.869 0 4.292 2.986 7.9 7.931 7.9zm0-3.514c-2.457 0-3.826-2.022-3.826-4.385 0-2.333 1.369-4.355 3.826-4.355s3.856 2.022 3.856 4.355c0 2.363-1.399 4.385-3.856 4.385zm23.545 3.141l-5.381-7.713 5.039-7.309h-4.417l-3.079 4.634-3.11-4.634h-4.416l5.007 7.309-5.318 7.713h4.385l3.452-5.07 3.421 5.07h4.417z" fill="#0A3D76"/><path fill-rule="evenodd" clip-rule="evenodd" d="M28.317 10.937a1.307 1.307 0 011.258 0l12.006 6.966c.626.343.852 1.124.506 1.744a1.303 1.303 0 01-1.762.5l-11.377-6.621-11.36 6.258a1.303 1.303 0 01-1.762-.497c-.348-.62-.123-1.4.502-1.745l11.989-6.605zm.633 28.893a1.29 1.29 0 011.291 1.287l-.017 5.067 10.078-5.551a1.303 1.303 0 011.763.497c.348.62.123 1.4-.503 1.745L30.224 49.2c-.956.452-1.604.452-2.574 0l-11.34-6.675a1.276 1.276 0 01-.478-1.752 1.303 1.303 0 011.769-.473l10.03 5.858.018-5.05a1.29 1.29 0 011.3-1.278z" fill="url(#paint2_linear)"/><path fill-rule="evenodd" clip-rule="evenodd" d="M44.82 20.494c.39.241.63.679.63 1.151v17.39c0 .74-.575 1.338-1.284 1.338-.709 0-1.284-.599-1.284-1.338v-15.13L30.368 31.34v4.695c0 .738-.574 1.337-1.284 1.337-.709 0-1.284-.599-1.284-1.337v-4.69l-13.457-7.582v15.48c0 .74-.575 1.338-1.284 1.338-.709 0-1.284-.599-1.284-1.338V21.52c0-.471.238-.908.627-1.15a1.24 1.24 0 011.268-.027l15.41 8.683 14.47-8.553a1.24 1.24 0 011.27.022z" fill="url(#paint3_linear)"/><path fill-rule="evenodd" clip-rule="evenodd" d="M26.16 4.172c1.686-1.028 2.92-1.687 4.601-.648l18.595 10.888c1.221.754 1.74 2.014.978 3.22-.763 1.207-2.364.755-3.585 0L29.27 7.284 8.537 18.842v23.431l20.734 11.81 17.5-10.18c1.25-.706 3.277-1.236 3.992 0 .714 1.235-.018 2.497-1.268 3.203L32.51 57.176c-1.556.879-3.888 1.296-6.025.006L6.608 45.91c-1.699-.896-2.607-1.445-2.607-3.348v-22.74c-.034-1.855.551-3.57 2.153-4.427L26.16 4.172z" fill="url(#paint4_linear)"/><path d="M65.109 48.914c1.701 0 2.674-.919 3.23-1.86l-1.413-.669a2.075 2.075 0 01-1.817 1.1c-1.4 0-2.42-1.054-2.42-2.483 0-1.428 1.02-2.483 2.42-2.483.799 0 1.493.488 1.817 1.1l1.412-.68c-.544-.941-1.528-1.848-3.23-1.848-2.314 0-4.108 1.587-4.108 3.911 0 2.325 1.794 3.912 4.109 3.912zm5.643-.136V45.16c.243-.352.89-.624 1.377-.624.162 0 .3.012.405.034v-1.405c-.694 0-1.389.396-1.782.884v-.748h-1.47v5.476h1.47zm5.328.136c.868 0 1.748-.26 2.303-.76l-.648-.93c-.359.34-1.019.545-1.493.545-.95 0-1.516-.578-1.609-1.27h4.155v-.318c0-1.791-1.134-3.015-2.8-3.015-1.702 0-2.894 1.28-2.894 2.868 0 1.757 1.284 2.88 2.986 2.88zm1.285-3.39H74.61c.07-.544.463-1.213 1.377-1.213.973 0 1.343.691 1.378 1.213zm7.312 3.254V45.24c0-1.576-1.17-2.075-2.443-2.075-.88 0-1.759.273-2.442.862l.556.964a2.379 2.379 0 011.632-.646c.74 0 1.227.363 1.227.918V46c-.37-.43-1.03-.669-1.771-.669-.892 0-1.945.488-1.945 1.769 0 1.224 1.053 1.814 1.945 1.814.729 0 1.389-.26 1.77-.703v.567h1.47zm-2.651-.84c-.579 0-1.053-.294-1.053-.804 0-.533.474-.828 1.053-.828.475 0 .938.159 1.18.476v.68c-.243.318-.706.477-1.18.477zm5.984.976c.613 0 1.006-.159 1.226-.352l-.312-1.088c-.081.08-.29.159-.51.159-.323 0-.509-.261-.509-.601V44.56h1.135v-1.258h-1.135v-1.497h-1.481v1.497h-.926v1.258h.926v2.857c0 .975.555 1.497 1.585 1.497zm2.765-6.202a.87.87 0 00.88-.862c0-.476-.394-.85-.88-.85-.475 0-.88.374-.88.85 0 .477.405.862.88.862zm.74 6.066v-5.476h-1.47v5.476h1.47zm4.49 0l2.246-5.476h-1.586l-1.458 3.81-1.459-3.81h-1.574l2.246 5.476h1.585zm5.529.136c.868 0 1.748-.26 2.304-.76l-.649-.93c-.358.34-1.018.545-1.493.545-.949 0-1.516-.578-1.608-1.27h4.155v-.318c0-1.791-1.135-3.015-2.801-3.015-1.702 0-2.894 1.28-2.894 2.868 0 1.757 1.285 2.88 2.986 2.88zm1.285-3.39h-2.755c.07-.544.463-1.213 1.378-1.213.972 0 1.342.691 1.377 1.213zm13.85 3.254v-7.563h-2.315l-1.875 4.57-1.875-4.57h-2.303v7.563h1.643v-5.295l2.176 5.295h.718l2.176-5.295v5.295h1.655zm6.325 0V45.24c0-1.576-1.169-2.075-2.442-2.075-.88 0-1.76.273-2.443.862l.556.964a2.38 2.38 0 011.632-.646c.741 0 1.227.363 1.227.918V46c-.371-.43-1.03-.669-1.771-.669-.891 0-1.945.488-1.945 1.769 0 1.224 1.054 1.814 1.945 1.814.729 0 1.389-.26 1.771-.703v.567h1.47zm-2.651-.84c-.578 0-1.053-.294-1.053-.804 0-.533.475-.828 1.053-.828.475 0 .938.159 1.181.476v.68c-.243.318-.706.477-1.181.477zm5.579.84V45.16c.243-.352.891-.624 1.377-.624.162 0 .301.012.405.034v-1.405c-.694 0-1.389.396-1.782.884v-.748h-1.47v5.476h1.47zm8.164 0l-2.28-2.993 2.21-2.483h-1.805l-2.118 2.437v-4.524h-1.47v7.563h1.47v-1.406l.671-.703 1.481 2.109h1.841zm3.29.136c.868 0 1.748-.26 2.304-.76l-.649-.93c-.358.34-1.018.545-1.493.545-.949 0-1.516-.578-1.609-1.27h4.156v-.318c0-1.791-1.135-3.015-2.801-3.015-1.702 0-2.894 1.28-2.894 2.868 0 1.757 1.285 2.88 2.986 2.88zm1.285-3.39h-2.755c.07-.544.463-1.213 1.378-1.213.972 0 1.342.691 1.377 1.213zm4.36 3.39c.614 0 1.007-.159 1.227-.352l-.312-1.088c-.081.08-.29.159-.509.159-.325 0-.51-.261-.51-.601V44.56h1.135v-1.258h-1.135v-1.497h-1.481v1.497h-.926v1.258h.926v2.857c0 .975.555 1.497 1.585 1.497zm2.765-6.202a.87.87 0 00.88-.862c0-.476-.393-.85-.88-.85-.474 0-.879.374-.879.85 0 .477.405.862.879.862zm.741 6.066v-5.476h-1.47v5.476h1.47zm6.701 0v-3.866c0-1.066-.59-1.746-1.817-1.746-.915 0-1.598.43-1.956.85v-.714h-1.47v5.476h1.47v-3.685a1.6 1.6 0 011.273-.646c.625 0 1.03.26 1.03 1.02v3.31h1.47zM156.979 51c1.377 0 3.021-.51 3.021-2.596v-5.102h-1.482v.703c-.451-.556-1.053-.84-1.724-.84-1.412 0-2.465.998-2.465 2.79 0 1.825 1.064 2.789 2.465 2.789.683 0 1.285-.318 1.724-.862v.556c0 1.077-.833 1.383-1.539 1.383s-1.296-.193-1.748-.68l-.659 1.043c.706.6 1.446.816 2.407.816zm.278-3.537c-.833 0-1.412-.567-1.412-1.508 0-.941.579-1.508 1.412-1.508.486 0 1.018.26 1.261.623v1.769c-.243.352-.775.624-1.261.624z" fill="#B01E34"/><defs><linearGradient id="paint0_linear" x1="60.781" y1="25.114" x2="105.603" y2="25.856" gradientUnits="userSpaceOnUse"><stop stop-color="#B6142C"/><stop offset="1" stop-color="#A62E41"/></linearGradient><linearGradient id="paint1_linear" x1="60.781" y1="25.114" x2="105.603" y2="25.856" gradientUnits="userSpaceOnUse"><stop stop-color="#B6142C"/><stop offset="1" stop-color="#A62E41"/></linearGradient><linearGradient id="paint2_linear" x1="15.663" y1="29.495" x2="42.877" y2="29.702" gradientUnits="userSpaceOnUse"><stop stop-color="#1758A0"/><stop offset="1" stop-color="#0A3D76"/></linearGradient><linearGradient id="paint3_linear" x1="11.775" y1="29.219" x2="45.446" y2="29.66" gradientUnits="userSpaceOnUse"><stop stop-color="#CD1732"/><stop offset=".5" stop-color="#B6142C"/><stop offset="1" stop-color="#8B1022"/></linearGradient><linearGradient id="paint4_linear" x1="4" y1="27.367" x2="51.042" y2="27.686" gradientUnits="userSpaceOnUse"><stop stop-color="#B6142C"/><stop offset="1" stop-color="#A62E41"/></linearGradient></defs></svg>
